X:282
T: Trinkreime
N: A0323
O: Europa, Mitteleuropa, Deutschland
N: Franck, Fasc. quodl. No. 1
R: Romanze, Ballade, Lied, Trinklied
M: 3/2
L: 1/2
K: F
c | c2c | d2d | c2c | A2
F | c2c | d2d | c2c | A2
c | BAG | A2c | BAG | F2

